poi/svg/2507.svg

<?xml version="1.0" encoding="UTF-8" standalone="no"?>
<svg
   xmlns:dc="http://purl.org/dc/elements/1.1/"
   xmlns:cc="http://creativecommons.org/ns#"
   xmlns:rdf="http://www.w3.org/1999/02/22-rdf-syntax-ns#"
   xmlns:svg="http://www.w3.org/2000/svg"
   xmlns="http://www.w3.org/2000/svg"
   xmlns:sodipodi="http://sodipodi.sourceforge.net/DTD/sodipodi-0.dtd"
   xmlns:inkscape="http://www.inkscape.org/namespaces/inkscape"
   inkscape:version="1.0 (4035a4fb49, 2020-05-01)"
   sodipodi:docname="2507.svg"
   id="svg20"
   version="1.2"
   viewBox="0 0 42.519639 42.519639"
   height="14.999999mm"
   width="14.999999mm">
  <metadata
     id="metadata24">
    <rdf:RDF>
      <cc:Work
         rdf:about="">
        <dc:format>image/svg+xml</dc:format>
        <dc:type
           rdf:resource="http://purl.org/dc/dcmitype/StillImage" />
        <dc:title>Qt SVG Document</dc:title>
      </cc:Work>
    </rdf:RDF>
  </metadata>
  <sodipodi:namedview
     inkscape:current-layer="svg20"
     inkscape:window-maximized="0"
     inkscape:window-y="0"
     inkscape:window-x="0"
     inkscape:cy="28.346482"
     inkscape:cx="28.346482"
     inkscape:zoom="5.8410537"
     showgrid="false"
     id="namedview22"
     inkscape:window-height="480"
     inkscape:window-width="1034"
     inkscape:pageshadow="2"
     inkscape:pageopacity="0"
     guidetolerance="10"
     gridtolerance="10"
     objecttolerance="10"
     borderopacity="1"
     bordercolor="#666666"
     pagecolor="#ffffff" />
  <title
     id="title2">Qt SVG Document</title>
  <desc
     id="desc4">Generated with Qt</desc>
  <defs
     id="defs6" />
  <g
     transform="translate(5.25984,5.25984)"
     id="g18"
     stroke-linejoin="bevel"
     stroke-linecap="square"
     fill-rule="evenodd"
     stroke-width="1"
     stroke="#000000"
     fill="none">
    <g
       id="g10"
       font-style="normal"
       font-weight="400"
       font-size="7.8px"
       font-family="'MS Shell Dlg 2'"
       stroke="none"
       fill-opacity="1"
       fill="#489174">
      <path
         id="path8"
         d="M 37.2598,16 C 37.2598,27.7415 27.7415,37.2598 16,37.2598 4.25851,37.2598 -5.25984,27.7415 -5.25984,16 -5.25984,4.25851 4.25851,-5.25984 16,-5.25984 27.7415,-5.25984 37.2598,4.25851 37.2598,16"
         fill-rule="evenodd"
         vector-effect="non-scaling-stroke" />
    </g>
    <g
       id="g14"
       font-style="normal"
       font-weight="400"
       font-size="7.8px"
       font-family="'MS Shell Dlg 2'"
       transform="translate(16,12.5984)"
       stroke="none"
       fill-opacity="0.94902"
       fill="#ffffff">
      <path
         id="path12"
         d="m -6.30762,-5.19141 c 0,0.028 0.028,0.07699 0.08399,0.14698 -0.05599,-0.06999 -0.11198,-0.10498 -0.16797,-0.10498 l 0.08398,-0.042 M 10.1953,0.834473 c 0.294,-0.307943 0.6054,-0.454916 0.9343,-0.440918 0.329,0.013997 0.5914,0.118978 0.7874,0.314941 0.196,0.195964 0.3009,0.451414 0.3149,0.766354 0.014,0.31494 -0.1329,0.63339 -0.4409,0.95533 L 5.51318,8.75 v 8.2095 h -7.53759 v -3.7793 h -3.42237 c -0.34993,0 -0.65438,-0.1295 -0.91333,-0.3885 -0.25895,-0.2589 -0.38843,-0.5563 -0.38843,-0.8923 0,-0.2939 0.10499,-0.5669 0.31495,-0.8188 L -2.44434,7.02832 C -2.30436,6.88835 -2.1259,6.77637 -1.90894,6.69238 -1.69198,6.6084 -1.47152,6.56641 -1.24756,6.56641 H 4.44238 L 10.1953,0.834473 M 1.25098,10.6816 c 0,-0.3639 -0.18197,-0.5459 -0.545902,-0.5459 h -1.34375 c -0.139974,0 -0.26945,0.049 -0.388428,0.147 -0.11898,0.098 -0.19246,0.217 -0.22046,0.3569 0.48991,0 0.857342,0.1295 1.102296,0.3885 0.2449548,0.2589 0.367432,0.5459 0.367432,0.8608 0,0.315 -0.1224772,0.6019 -0.367432,0.8609 -0.244954,0.2589 -0.612386,0.3884 -1.102296,0.3884 0,0.4059 0.20296,0.6089 0.608888,0.6089 h 1.34375 c 0.363932,0 0.545902,-0.189 0.545902,-0.5669 v -2.4986 m -7.13868,-17.19576 -4.7241,4.68213 v -1.55371 l 0.2519,-1.32276 -0.8188,-0.77685 1.59569,-1.5957 0.81885,0.77685 1.28076,-0.25195 1.5957,0.04199 M 1.41895,6.0835 C 0.649089,6.0835 -0.0157878,5.80355 -0.575684,5.24365 -1.13558,4.68376 -1.41553,4.01888 -1.41553,3.24902 c 0,-0.76985 0.27995,-1.43473 0.839846,-1.99463 0.5598962,-0.559891 1.224773,-0.839839 1.994634,-0.839839 0.78385,0 1.45572,0.279948 2.01562,0.839839 0.5599,0.5599 0.83984,1.22478 0.83984,1.99463 0,0.76986 -0.27994,1.43474 -0.83984,1.99463 C 2.87467,5.80355 2.2028,6.0835 1.41895,6.0835 M -5.48877,-5.40137 c -0.26595,0 -0.39893,-0.12597 -0.39893,-0.37793 0,-0.26595 0.13298,-0.39892 0.39893,-0.39892 0.25195,0 0.37793,0.13297 0.37793,0.39892 0,0.25196 -0.12598,0.37793 -0.37793,0.37793 m 1.49072,0.60889 c -0.30794,0 -0.46191,-0.16097 -0.46191,-0.48291 0,-0.13997 0.04199,-0.25895 0.12598,-0.35693 0.08398,-0.09799 0.19596,-0.14698 0.33593,-0.14698 0.15397,0 0.27995,0.04899 0.37793,0.14698 0.09798,0.09798 0.14698,0.21696 0.14698,0.35693 0,0.32194 -0.17497,0.48291 -0.52491,0.48291 m 1.88965,0.77685 c -0.39193,0 -0.58789,-0.20296 -0.58789,-0.60888 0,-0.13998 0.05599,-0.27645 0.16797,-0.40943 0.11198,-0.13297 0.25195,-0.19946 0.41992,-0.19946 0.18197,0 0.32894,0.06649 0.44092,0.19946 0.11198,0.13298 0.16797,0.26945 0.16797,0.40943 0,0.40592 -0.20296,0.60888 -0.60889,0.60888 m 2.330568,0.90284 c -0.461914,0 -0.692871,-0.23096 -0.692871,-0.69287 0,-0.46192 0.230957,-0.69288 0.692871,-0.69288 0.461914,0 0.692871,0.23096 0.692871,0.69288 0,0.46191 -0.230957,0.69287 -0.692871,0.69287 m 2.792482,1.0708 c -0.22396,0 -0.41642,-0.08049 -0.57739,-0.24146 C 2.27629,-2.44442 2.1958,-2.63688 2.1958,-2.86084 c 0,-0.22396 0.08049,-0.40942 0.24146,-0.5564 0.16097,-0.14697 0.35343,-0.22046 0.57739,-0.22046 0.22396,0 0.40942,0.07349 0.55639,0.22046 0.14698,0.14698 0.22046,0.33244 0.22046,0.5564 0,0.22396 -0.07348,0.41642 -0.22046,0.57739 -0.14697,0.16097 -0.33243,0.24146 -0.55639,0.24146 m -12.30371,0.46191 c 0,0.26595 -0.13998,0.39893 -0.41992,0.39893 -0.26595,0 -0.39892,-0.14698 -0.39892,-0.44092 0.07,-0.27995 0.21695,-0.39193 0.44091,-0.33594 0.25195,0 0.37793,0.12598 0.37793,0.37793 m 0.81885,1.469728 c -0.028,0.1399744 -0.08399,0.255453 -0.16797,0.346436 -0.08399,0.090983 -0.19597,0.122477 -0.33594,0.094482 -0.37793,0 -0.5389,-0.174967 -0.48291,-0.524902 0,-0.32194 0.17497,-0.48291 0.5249,-0.48291 0.30794,0.069987 0.46192,0.258952 0.46192,0.566894 m 0.81884,1.511722 c -0.02799,0.16797 -0.09798,0.30794 -0.20996,0.41992 -0.11198,0.11198 -0.25895,0.15397 -0.44092,0.12598 -0.13997,0 -0.26595,-0.06299 -0.37793,-0.18897 -0.11197,-0.12598 -0.16796,-0.25895 -0.16796,-0.39892 0,-0.18197 0.06298,-0.32894 0.18896,-0.440923 0.12598,-0.111979 0.27995,-0.153971 0.46191,-0.125977 0.13998,0 0.26595,0.066488 0.37793,0.199463 0.11198,0.132977 0.16797,0.269447 0.16797,0.409427 m 0.86084,1.72168 c 0,0.19596 -0.06998,0.35693 -0.20996,0.48291 -0.13997,0.12597 -0.31494,0.17496 -0.5249,0.14697 -0.16797,0 -0.31494,-0.06999 -0.44092,-0.20996 -0.12598,-0.13998 -0.18896,-0.30794 -0.18896,-0.50391 0.02799,-0.18196 0.10498,-0.33593 0.23095,-0.46191 0.12598,-0.12598 0.28695,-0.18897 0.48291,-0.18897 0.20996,0 0.37793,0.06999 0.50391,0.20996 0.12598,0.13998 0.17497,0.31495 0.14697,0.52491 m 1.02881,1.97363 c -0.02799,0.22396 -0.11198,0.40942 -0.25195,0.5564 -0.13998,0.14697 -0.32894,0.20646 -0.5669,0.17846 -0.22395,0 -0.40592,-0.08048 -0.54589,-0.24145 -0.13998,-0.16097 -0.20997,-0.35344 -0.20997,-0.57739 0,-0.23796 0.07699,-0.42693 0.23096,-0.5669 0.15397,-0.13997 0.34294,-0.20996 0.5669,-0.20996 0.23795,0.02799 0.42692,0.12248 0.56689,0.28345 0.13997,0.16097 0.20996,0.35343 0.20996,0.57739 m -2.54053,-8.48242 c 0.29395,0 0.44092,0.13297 0.44092,0.39892 0,0.25196 -0.14697,0.37793 -0.44092,0.37793 -0.25195,0 -0.37793,-0.12597 -0.37793,-0.37793 0,-0.26595 0.12598,-0.39892 0.37793,-0.39892 m 0.90284,2.03662 c -0.13998,0 -0.25896,-0.05949 -0.35694,-0.17847 -0.09798,-0.11898 -0.14697,-0.24845 -0.14697,-0.38843 0,-0.13997 0.04899,-0.25895 0.14697,-0.35693 0.09798,-0.09798 0.21696,-0.14697 0.35694,-0.14697 0.15397,0 0.28694,0.04899 0.39892,0.14697 0.11198,0.09798 0.16797,0.21696 0.16797,0.35693 0,0.37793 -0.18896,0.5669 -0.56689,0.5669 m 1.17578,1.490722 c -0.20996,0 -0.37793,-0.0629887 -0.50391,-0.1889653 C -6.85352,-0.17334 -6.9165,-0.320313 -6.9165,-0.488281 c 0,-0.461914 0.23095,-0.692869 0.69287,-0.692869 0.16797,0 0.31844,0.06299 0.45141,0.188962 0.13298,0.125977 0.19947,0.293946 0.19947,0.503907 0,0.167968 -0.06649,0.314941 -0.19947,0.4409177 C -5.90519,0.0786133 -6.05566,0.141602 -6.22363,0.141602 M -5.8457,1.00244 c 0,-0.223957 0.08048,-0.409422 0.24145,-0.556395 0.16097,-0.146973 0.35344,-0.220459 0.57739,-0.220459 0.23796,0 0.42693,0.073486 0.5669,0.220459 0.13997,0.146973 0.20996,0.332438 0.20996,0.556395 0,0.23796 -0.06999,0.43392 -0.20996,0.58789 -0.13997,0.15397 -0.32894,0.23096 -0.5669,0.23096 -0.22395,0 -0.41642,-0.07699 -0.57739,-0.23096 C -5.76522,1.43636 -5.8457,1.2404 -5.8457,1.00244 m -0.69287,-5.29101 c 0,0.26595 -0.12598,0.39892 -0.37793,0.39892 -0.25196,0 -0.37793,-0.13297 -0.37793,-0.39892 0,-0.27995 0.12597,-0.41993 0.37793,-0.41993 0.25195,0 0.37793,0.13998 0.37793,0.41993 m 1.38574,0.77685 c 0,0.15397 -0.04899,0.27995 -0.14697,0.37793 -0.09799,0.09798 -0.22396,0.14697 -0.37793,0.14697 -0.13998,0 -0.26595,-0.04899 -0.37793,-0.14697 -0.11198,-0.09798 -0.16797,-0.22396 -0.16797,-0.37793 0,-0.36393 0.18196,-0.5459 0.5459,-0.5459 0.34993,0 0.5249,0.18197 0.5249,0.5459 m 0.94482,1.5957 c -0.19596,0 -0.35343,-0.06298 -0.47241,-0.18896 -0.11898,-0.12598 -0.17847,-0.27995 -0.17847,-0.46191 0,-0.44792 0.21696,-0.67188 0.65088,-0.67188 0.16797,0 0.31844,0.06299 0.45142,0.18897 0.13297,0.12597 0.19946,0.28694 0.19946,0.48291 0,0.18196 -0.06649,0.33593 -0.19946,0.46191 -0.13298,0.12598 -0.28345,0.18896 -0.45142,0.18896 m 1.76367,1.343754 c -0.22395,0 -0.40942,-0.073486 -0.55639,-0.220459 -0.14698,-0.146972 -0.22046,-0.332435 -0.22046,-0.556395 0,-0.23796 0.07348,-0.43392 0.22046,-0.58789 0.14697,-0.15397 0.33244,-0.23096 0.55639,-0.23096 0.22396,0 0.40943,0.07699 0.5564,0.23096 0.14697,0.15397 0.22046,0.34993 0.22046,0.58789 0,0.22396 -0.07349,0.409423 -0.22046,0.556395 -0.14697,0.146973 -0.33244,0.220459 -0.5564,0.220459"
         fill-rule="evenodd"
         vector-effect="none" />
    </g>
    <g
       id="g16"
       font-style="normal"
       font-weight="400"
       font-size="7.8px"
       font-family="'MS Shell Dlg 2'"
       stroke="none"
       fill-opacity="1"
       fill="#489174" />
  </g>
</svg>

<?xml version="1.0" encoding="UTF-8" standalone="no"?>
<svg width="11.2889mm" height="11.2889mm"
 viewBox="0 0 32 32"
 xmlns="http://www.w3.org/2000/svg" xmlns:xlink="http://www.w3.org/1999/xlink"  version="1.2" baseProfile="tiny">
<title>Qt SVG Document</title>
<desc>Generated with Qt</desc>
<defs>
</defs>
<g fill="none" stroke="black" stroke-width="1" fill-rule="evenodd" stroke-linecap="square" stroke-linejoin="bevel" >

<g fill="#489174" fill-opacity="1" stroke="none" transform="matrix(1,0,0,1,0,0)"
font-family="MS Shell Dlg 2" font-size="7.8" font-weight="400" font-style="normal" 
>
<path vector-effect="non-scaling-stroke" fill-rule="evenodd" d="M37.2598,16 C37.2598,27.7415 27.7415,37.2598 16,37.2598 C4.25851,37.2598 -5.25984,27.7415 -5.25984,16 C-5.25984,4.25851 4.25851,-5.25984 16,-5.25984 C27.7415,-5.25984 37.2598,4.25851 37.2598,16 "/>
</g>

<g fill="#ffffff" fill-opacity="0.94902" stroke="none" transform="matrix(1,0,0,1,16,12.5984)"
font-family="MS Shell Dlg 2" font-size="7.8" font-weight="400" font-style="normal" 
>
<path vector-effect="none" fill-rule="evenodd" d="M-6.30762,-5.19141 C-6.30762,-5.16341 -6.27962,-5.11442 -6.22363,-5.04443 C-6.27962,-5.11442 -6.33561,-5.14941 -6.3916,-5.14941 L-6.30762,-5.19141 M10.1953,0.834473 C10.4893,0.52653 10.8007,0.379557 11.1296,0.393555 C11.4586,0.407552 11.721,0.512533 11.917,0.708496 C12.113,0.90446 12.2179,1.15991 12.2319,1.47485 C12.2459,1.78979 12.099,2.10824 11.791,2.43018 L5.51318,8.75 L5.51318,16.9595 L-2.02441,16.9595 L-2.02441,13.1802 L-5.44678,13.1802 C-5.79671,13.1802 -6.10116,13.0507 -6.36011,12.7917 C-6.61906,12.5328 -6.74854,12.2354 -6.74854,11.8994 C-6.74854,11.6055 -6.64355,11.3325 -6.43359,11.0806 L-2.44434,7.02832 C-2.30436,6.88835 -2.1259,6.77637 -1.90894,6.69238 C-1.69198,6.6084 -1.47152,6.56641 -1.24756,6.56641 L4.44238,6.56641 L10.1953,0.834473 M1.25098,10.6816 C1.25098,10.3177 1.06901,10.1357 0.705078,10.1357 L-0.638672,10.1357 C-0.778646,10.1357 -0.908122,10.1847 -1.0271,10.2827 C-1.14608,10.3807 -1.21956,10.4997 -1.24756,10.6396 C-0.75765,10.6396 -0.390218,10.7691 -0.145264,11.0281 C0.0996908,11.287 0.222168,11.574 0.222168,11.8889 C0.222168,12.2039 0.0996908,12.4908 -0.145264,12.7498 C-0.390218,13.0087 -0.75765,13.1382 -1.24756,13.1382 C-1.24756,13.5441 -1.0446,13.7471 -0.638672,13.7471 L0.705078,13.7471 C1.06901,13.7471 1.25098,13.5581 1.25098,13.1802 L1.25098,10.6816 M-5.8877,-6.51416 L-10.6118,-1.83203 L-10.6118,-3.38574 L-10.3599,-4.7085 L-11.1787,-5.48535 L-9.58301,-7.08105 L-8.76416,-6.3042 L-7.4834,-6.55615 L-5.8877,-6.51416 M1.41895,6.0835 C0.649089,6.0835 -0.0157878,5.80355 -0.575684,5.24365 C-1.13558,4.68376 -1.41553,4.01888 -1.41553,3.24902 C-1.41553,2.47917 -1.13558,1.81429 -0.575684,1.25439 C-0.0157878,0.694499 0.649089,0.414551 1.41895,0.414551 C2.2028,0.414551 2.87467,0.694499 3.43457,1.25439 C3.99447,1.81429 4.27441,2.47917 4.27441,3.24902 C4.27441,4.01888 3.99447,4.68376 3.43457,5.24365 C2.87467,5.80355 2.2028,6.0835 1.41895,6.0835 M-5.48877,-5.40137 C-5.75472,-5.40137 -5.8877,-5.52734 -5.8877,-5.7793 C-5.8877,-6.04525 -5.75472,-6.17822 -5.48877,-6.17822 C-5.23682,-6.17822 -5.11084,-6.04525 -5.11084,-5.7793 C-5.11084,-5.52734 -5.23682,-5.40137 -5.48877,-5.40137 M-3.99805,-4.79248 C-4.30599,-4.79248 -4.45996,-4.95345 -4.45996,-5.27539 C-4.45996,-5.41536 -4.41797,-5.53434 -4.33398,-5.63232 C-4.25,-5.73031 -4.13802,-5.7793 -3.99805,-5.7793 C-3.84408,-5.7793 -3.7181,-5.73031 -3.62012,-5.63232 C-3.52214,-5.53434 -3.47314,-5.41536 -3.47314,-5.27539 C-3.47314,-4.95345 -3.64811,-4.79248 -3.99805,-4.79248 M-2.1084,-4.01563 C-2.50033,-4.01563 -2.69629,-4.21859 -2.69629,-4.62451 C-2.69629,-4.76449 -2.6403,-4.90096 -2.52832,-5.03394 C-2.41634,-5.16691 -2.27637,-5.2334 -2.1084,-5.2334 C-1.92643,-5.2334 -1.77946,-5.16691 -1.66748,-5.03394 C-1.5555,-4.90096 -1.49951,-4.76449 -1.49951,-4.62451 C-1.49951,-4.21859 -1.70247,-4.01563 -2.1084,-4.01563 M0.222168,-3.11279 C-0.239746,-3.11279 -0.470703,-3.34375 -0.470703,-3.80566 C-0.470703,-4.26758 -0.239746,-4.49854 0.222168,-4.49854 C0.684082,-4.49854 0.915039,-4.26758 0.915039,-3.80566 C0.915039,-3.34375 0.684082,-3.11279 0.222168,-3.11279 M3.01465,-2.04199 C2.79069,-2.04199 2.59823,-2.12248 2.43726,-2.28345 C2.27629,-2.44442 2.1958,-2.63688 2.1958,-2.86084 C2.1958,-3.0848 2.27629,-3.27026 2.43726,-3.41724 C2.59823,-3.56421 2.79069,-3.6377 3.01465,-3.6377 C3.23861,-3.6377 3.42407,-3.56421 3.57104,-3.41724 C3.71802,-3.27026 3.7915,-3.0848 3.7915,-2.86084 C3.7915,-2.63688 3.71802,-2.44442 3.57104,-2.28345 C3.42407,-2.12248 3.23861,-2.04199 3.01465,-2.04199 M-9.28906,-1.58008 C-9.28906,-1.31413 -9.42904,-1.18115 -9.70898,-1.18115 C-9.97493,-1.18115 -10.1079,-1.32813 -10.1079,-1.62207 C-10.0379,-1.90202 -9.89095,-2.014 -9.66699,-1.95801 C-9.41504,-1.95801 -9.28906,-1.83203 -9.28906,-1.58008 M-8.47021,-0.110352 C-8.49821,0.0296224 -8.5542,0.145101 -8.63818,0.236084 C-8.72217,0.327067 -8.83415,0.358561 -8.97412,0.330566 C-9.35205,0.330566 -9.51302,0.155599 -9.45703,-0.194336 C-9.45703,-0.516276 -9.28206,-0.677246 -8.93213,-0.677246 C-8.62419,-0.607259 -8.47021,-0.418294 -8.47021,-0.110352 M-7.65137,1.40137 C-7.67936,1.56934 -7.74935,1.70931 -7.86133,1.82129 C-7.97331,1.93327 -8.12028,1.97526 -8.30225,1.94727 C-8.44222,1.94727 -8.5682,1.88428 -8.68018,1.7583 C-8.79215,1.63232 -8.84814,1.49935 -8.84814,1.35938 C-8.84814,1.17741 -8.78516,1.03044 -8.65918,0.918457 C-8.5332,0.806478 -8.37923,0.764486 -8.19727,0.79248 C-8.05729,0.79248 -7.93132,0.858968 -7.81934,0.991943 C-7.70736,1.12492 -7.65137,1.26139 -7.65137,1.40137 M-6.79053,3.12305 C-6.79053,3.31901 -6.86051,3.47998 -7.00049,3.60596 C-7.14046,3.73193 -7.31543,3.78092 -7.52539,3.75293 C-7.69336,3.75293 -7.84033,3.68294 -7.96631,3.54297 C-8.09229,3.40299 -8.15527,3.23503 -8.15527,3.03906 C-8.12728,2.8571 -8.05029,2.70313 -7.92432,2.57715 C-7.79834,2.45117 -7.63737,2.38818 -7.44141,2.38818 C-7.23145,2.38818 -7.06348,2.45817 -6.9375,2.59814 C-6.81152,2.73812 -6.76253,2.91309 -6.79053,3.12305 M-5.76172,5.09668 C-5.78971,5.32064 -5.8737,5.5061 -6.01367,5.65308 C-6.15365,5.80005 -6.34261,5.85954 -6.58057,5.83154 C-6.80452,5.83154 -6.98649,5.75106 -7.12646,5.59009 C-7.26644,5.42912 -7.33643,5.23665 -7.33643,5.0127 C-7.33643,4.77474 -7.25944,4.58577 -7.10547,4.4458 C-6.9515,4.30583 -6.76253,4.23584 -6.53857,4.23584 C-6.30062,4.26383 -6.11165,4.35832 -5.97168,4.51929 C-5.83171,4.68026 -5.76172,4.87272 -5.76172,5.09668 M-8.30225,-3.38574 C-8.0083,-3.38574 -7.86133,-3.25277 -7.86133,-2.98682 C-7.86133,-2.73486 -8.0083,-2.60889 -8.30225,-2.60889 C-8.5542,-2.60889 -8.68018,-2.73486 -8.68018,-2.98682 C-8.68018,-3.25277 -8.5542,-3.38574 -8.30225,-3.38574 M-7.39941,-1.34912 C-7.53939,-1.34912 -7.65837,-1.40861 -7.75635,-1.52759 C-7.85433,-1.64657 -7.90332,-1.77604 -7.90332,-1.91602 C-7.90332,-2.05599 -7.85433,-2.17497 -7.75635,-2.27295 C-7.65837,-2.37093 -7.53939,-2.41992 -7.39941,-2.41992 C-7.24544,-2.41992 -7.11247,-2.37093 -7.00049,-2.27295 C-6.88851,-2.17497 -6.83252,-2.05599 -6.83252,-1.91602 C-6.83252,-1.53809 -7.02148,-1.34912 -7.39941,-1.34912 M-6.22363,0.141602 C-6.43359,0.141602 -6.60156,0.0786133 -6.72754,-0.0473633 C-6.85352,-0.17334 -6.9165,-0.320313 -6.9165,-0.488281 C-6.9165,-0.950195 -6.68555,-1.18115 -6.22363,-1.18115 C-6.05566,-1.18115 -5.90519,-1.11816 -5.77222,-0.992188 C-5.63924,-0.866211 -5.57275,-0.698242 -5.57275,-0.488281 C-5.57275,-0.320313 -5.63924,-0.17334 -5.77222,-0.0473633 C-5.90519,0.0786133 -6.05566,0.141602 -6.22363,0.141602 M-5.8457,1.00244 C-5.8457,0.778483 -5.76522,0.593018 -5.60425,0.446045 C-5.44328,0.299072 -5.25081,0.225586 -5.02686,0.225586 C-4.7889,0.225586 -4.59993,0.299072 -4.45996,0.446045 C-4.31999,0.593018 -4.25,0.778483 -4.25,1.00244 C-4.25,1.2404 -4.31999,1.43636 -4.45996,1.59033 C-4.59993,1.7443 -4.7889,1.82129 -5.02686,1.82129 C-5.25081,1.82129 -5.44328,1.7443 -5.60425,1.59033 C-5.76522,1.43636 -5.8457,1.2404 -5.8457,1.00244 M-6.53857,-4.28857 C-6.53857,-4.02262 -6.66455,-3.88965 -6.9165,-3.88965 C-7.16846,-3.88965 -7.29443,-4.02262 -7.29443,-4.28857 C-7.29443,-4.56852 -7.16846,-4.7085 -6.9165,-4.7085 C-6.66455,-4.7085 -6.53857,-4.56852 -6.53857,-4.28857 M-5.15283,-3.51172 C-5.15283,-3.35775 -5.20182,-3.23177 -5.2998,-3.13379 C-5.39779,-3.03581 -5.52376,-2.98682 -5.67773,-2.98682 C-5.81771,-2.98682 -5.94368,-3.03581 -6.05566,-3.13379 C-6.16764,-3.23177 -6.22363,-3.35775 -6.22363,-3.51172 C-6.22363,-3.87565 -6.04167,-4.05762 -5.67773,-4.05762 C-5.3278,-4.05762 -5.15283,-3.87565 -5.15283,-3.51172 M-4.20801,-1.91602 C-4.40397,-1.91602 -4.56144,-1.979 -4.68042,-2.10498 C-4.7994,-2.23096 -4.85889,-2.38493 -4.85889,-2.56689 C-4.85889,-3.01481 -4.64193,-3.23877 -4.20801,-3.23877 C-4.04004,-3.23877 -3.88957,-3.17578 -3.75659,-3.0498 C-3.62362,-2.92383 -3.55713,-2.76286 -3.55713,-2.56689 C-3.55713,-2.38493 -3.62362,-2.23096 -3.75659,-2.10498 C-3.88957,-1.979 -4.04004,-1.91602 -4.20801,-1.91602 M-2.44434,-0.572266 C-2.66829,-0.572266 -2.85376,-0.645752 -3.00073,-0.792725 C-3.14771,-0.939697 -3.22119,-1.12516 -3.22119,-1.34912 C-3.22119,-1.58708 -3.14771,-1.78304 -3.00073,-1.93701 C-2.85376,-2.09098 -2.66829,-2.16797 -2.44434,-2.16797 C-2.22038,-2.16797 -2.03491,-2.09098 -1.88794,-1.93701 C-1.74097,-1.78304 -1.66748,-1.58708 -1.66748,-1.34912 C-1.66748,-1.12516 -1.74097,-0.939697 -1.88794,-0.792725 C-2.03491,-0.645752 -2.22038,-0.572266 -2.44434,-0.572266 "/>
</g>

<g fill="#489174" fill-opacity="1" stroke="none" transform="matrix(1,0,0,1,0,0)"
font-family="MS Shell Dlg 2" font-size="7.8" font-weight="400" font-style="normal" 
>
</g>
</g>
</svg>
